icon/cg/today.svg

<svg viewBox="0 0 24 24" fill="none" xmlns="http://www.w3.org/2000/svg" height="1em" width="1em">
  <rect opacity="0.5" x="7" y="9" width="10" height="10" rx="1" fill="currentColor"/>
  <path fill-rule="evenodd" clip-rule="evenodd" d="M18 3H6C5.44772 3 5 3.44772 5 4V20C5 20.5523 5.44772 21 6 21H18C18.5523 21 19 20.5523 19 20V4C19 3.44772 18.5523 3 18 3ZM6 1C4.34315 1 3 2.34315 3 4V20C3 21.6569 4.34315 23 6 23H18C19.6569 23 21 21.6569 21 20V4C21 2.34315 19.6569 1 18 1H6Z" fill="currentColor"/>
  <path d="M7 6C7 5.44772 7.44772 5 8 5H12C12.5523 5 13 5.44772 13 6C13 6.55228 12.5523 7 12 7H8C7.44772 7 7 6.55228 7 6Z" fill="currentColor"/>
</svg>

<svg width="24" height="24" fill="none" xmlns="http://www.w3.org/2000/svg"><rect opacity=".5" x="7" y="9" width="10" height="10" rx="1" fill="currentColor"/><path fill-rule="evenodd" clip-rule="evenodd" d="M18 3H6a1 1 0 0 0-1 1v16a1 1 0 0 0 1 1h12a1 1 0 0 0 1-1V4a1 1 0 0 0-1-1ZM6 1a3 3 0 0 0-3 3v16a3 3 0 0 0 3 3h12a3 3 0 0 0 3-3V4a3 3 0 0 0-3-3H6Z" fill="currentColor"/><path d="M7 6a1 1 0 0 1 1-1h4a1 1 0 1 1 0 2H8a1 1 0 0 1-1-1Z" fill="currentColor"/></svg>
